symbols/web/local_cafe/materialsymbolssharp/local_cafe_wght100_40px.svg

<svg xmlns="http://www.w3.org/2000/svg" height="40" width="40"><path d="M8.833 32.583v-1h21.334v1Zm0-5.833V7.417h21.5q.959 0 1.646.687.688.688.688 1.646v3.167q0 .958-.688 1.645-.687.688-1.646.688h-2.458v11.5Zm1-1h17.042V8.417H9.833Zm18.042-11.5h2.458q.584 0 .959-.375t.375-.958V9.75q0-.583-.375-.958t-.959-.375h-2.458Zm-9.5 2.833Z"/></svg>

<svg xmlns="http://www.w3.org/2000/svg" height="40" width="40"><path d="M8.833 32.583V31.583H30.167V32.583ZM8.833 26.75V7.417H30.333Q31.292 7.417 31.979 8.104Q32.667 8.792 32.667 9.75V12.917Q32.667 13.875 31.979 14.562Q31.292 15.25 30.333 15.25H27.875V26.75ZM9.833 25.75H26.875V8.417H9.833ZM27.875 14.25H30.333Q30.917 14.25 31.292 13.875Q31.667 13.5 31.667 12.917V9.75Q31.667 9.167 31.292 8.792Q30.917 8.417 30.333 8.417H27.875ZM18.375 17.083Z"/></svg>
